exports/fatality-rates-due-to-lightning-in-the-us_v3_850x600.svg

<svg xmlns="http://www.w3.org/2000/svg" version="1.1" style="background-color:#fff;-webkit-font-smoothing:antialiased" width="850" height="600" font-family="'Helvetica Neue',Helvetica,Arial,sans-serif" font-size="18" text-rendering="optimizeLegibility"><g class="ChartTab"><g class="HeaderView"><g opacity=".8" transform="matrix(.27 0 0 .27 778 15)"><a xmlns:xlink="http://www.w3.org/1999/xlink" xlink:href="https://ourworldindata.org" target="_blank"><g><path fill="#1B2543" d="M0 0h211.2v130.1H0z"/><path fill="#E63912" d="M0 112.2h211.2v17.9H0z"/><g><path fill="none" d="M1.2 12.3h210.2v99.2H1.2z"/><path fill="#FFF" d="M37.8 32.2c0 12.7-7.7 19.4-17.1 19.4-9.7 0-16.6-7.5-16.6-18.7 0-11.7 7.3-19.3 17.1-19.3 10.1.1 16.6 7.7 16.6 18.6zm-28.6.6c0 7.9 4.3 14.9 11.8 14.9 7.5 0 11.8-6.9 11.8-15.3 0-7.3-3.8-14.9-11.8-14.9-7.9 0-11.8 7.3-11.8 15.3zM62.7 43.8c0 2.7.1 5.1.2 7.2h-4.3l-.3-4.3h-.1c-1.3 2.1-4 4.9-8.8 4.9-4.2 0-9.1-2.3-9.1-11.6V24.6h4.8v14.6c0 5 1.5 8.4 5.9 8.4 3.2 0 5.5-2.2 6.3-4.4.3-.7.4-1.6.4-2.5V24.6h4.8v19.2zM67.3 32.8c0-3.1-.1-5.8-.2-8.2h4.2l.2 5.2h.2c1.2-3.5 4.1-5.8 7.3-5.8.5 0 .9.1 1.4.2v4.5c-.5-.1-1-.2-1.6-.2-3.4 0-5.8 2.6-6.5 6.2-.1.7-.2 1.4-.2 2.2V51h-4.8V32.8zM95.4 51L86 14.2h5l4.4 18.6c1.1 4.6 2.1 9.2 2.7 12.7h.1c.6-3.7 1.8-8 3-12.8l4.9-18.5h5l4.5 18.7c1 4.4 2 8.7 2.6 12.6h.1c.8-4 1.8-8.1 3-12.7l4.9-18.5h4.9L120.6 51h-5L111 31.9c-1.1-4.7-1.9-8.3-2.4-12h-.1c-.7 3.7-1.5 7.3-2.8 12L100.4 51h-5zM154.9 37.6c0 9.8-6.8 14-13.2 14-7.2 0-12.7-5.2-12.7-13.6 0-8.8 5.8-14 13.1-14 7.7 0 12.8 5.5 12.8 13.6zm-21 .3c0 5.8 3.3 10.1 8 10.1 4.6 0 8-4.3 8-10.3 0-4.5-2.2-10.1-7.9-10.1s-8.1 5.2-8.1 10.3zM158.2 32.8c0-3.1-.1-5.8-.2-8.2h4.2l.2 5.2h.2c1.2-3.5 4.1-5.8 7.3-5.8.5 0 .9.1 1.4.2v4.5c-.5-.1-1-.2-1.6-.2-3.4 0-5.8 2.6-6.5 6.2-.1.7-.2 1.4-.2 2.2V51h-4.8V32.8zM173.5 12.3h4.8V51h-4.8V12.3zM206.5 12.3v31.9c0 2.3.1 5 .2 6.8h-4.3l-.2-4.6h-.2c-1.5 2.9-4.7 5.2-9 5.2-6.4 0-11.3-5.4-11.3-13.4-.1-8.8 5.4-14.2 11.9-14.2 4 0 6.8 1.9 8 4h.1V12.3h4.8zm-4.8 23.1c0-.6-.1-1.4-.2-2a7 7 0 00-6.9-5.6c-5 0-7.9 4.4-7.9 10.2 0 5.3 2.6 9.8 7.8 9.8 3.2 0 6.2-2.1 7.1-5.7.2-.7.2-1.3.2-2.1v-4.6zM42.8 64c.1 1.6-1.1 2.9-3.1 2.9-1.7 0-2.9-1.3-2.9-2.9 0-1.7 1.3-3 3-3 1.9 0 3 1.3 3 3zm-5.4 33.8V71.4h4.8v26.4h-4.8zM47.5 78.6c0-2.7-.1-5-.2-7.1h4.3l.3 4.4h.1c1.3-2.5 4.4-5 8.8-5 3.7 0 9.4 2.2 9.4 11.2v15.8h-4.8V82.6c0-4.3-1.6-7.8-6.1-7.8-3.2 0-5.6 2.2-6.5 4.9-.2.6-.3 1.4-.3 2.2v15.9h-4.8V78.6zM84 61.6c2.9-.4 6.3-.8 10.1-.8 6.8 0 11.7 1.6 14.9 4.6 3.3 3 5.2 7.3 5.2 13.2 0 6-1.9 10.9-5.3 14.3-3.4 3.4-9.1 5.3-16.3 5.3-3.4 0-6.2-.2-8.6-.4V61.6zm4.8 32.5c1.2.2 3 .3 4.8.3 10.2 0 15.7-5.7 15.7-15.6.1-8.7-4.9-14.2-14.9-14.2-2.5 0-4.3.2-5.6.5v29zM132.1 97.8l-.4-3.3h-.2a9.79 9.79 0 01-8.1 3.9c-5.4 0-8.1-3.8-8.1-7.6 0-6.4 5.7-9.9 15.9-9.8v-.5c0-2.2-.6-6.1-6-6.1-2.5 0-5 .8-6.9 2l-1.1-3.2c2.2-1.4 5.4-2.3 8.7-2.3 8.1 0 10.1 5.5 10.1 10.8v9.9c0 2.3.1 4.5.4 6.3h-4.3zm-.7-13.4c-5.3-.1-11.2.8-11.2 5.9 0 3.1 2.1 4.6 4.5 4.6 3.4 0 5.6-2.2 6.4-4.4.2-.5.3-1 .3-1.5v-4.6zM146.6 63.9v7.6h6.9v3.7h-6.9v14.2c0 3.3.9 5.1 3.6 5.1 1.3 0 2.2-.2 2.8-.3l.2 3.6c-.9.4-2.4.7-4.3.7-2.2 0-4-.7-5.2-2-1.4-1.4-1.9-3.8-1.9-6.9V75.1h-4.1v-3.7h4.1v-6.3l4.8-1.2zM171.4 97.8l-.4-3.3h-.2a9.79 9.79 0 01-8.1 3.9c-5.4 0-8.1-3.8-8.1-7.6 0-6.4 5.7-9.9 15.9-9.8v-.5c0-2.2-.6-6.1-6-6.1-2.5 0-5 .8-6.9 2l-1.1-3.2c2.2-1.4 5.4-2.3 8.7-2.3 8.1 0 10.1 5.5 10.1 10.8v9.9c0 2.3.1 4.5.4 6.3h-4.3zm-.7-13.4c-5.3-.1-11.2.8-11.2 5.9 0 3.1 2.1 4.6 4.5 4.6 3.4 0 5.6-2.2 6.4-4.4.2-.5.3-1 .3-1.5v-4.6z"/></g></g></a></g><a href="https://ourworldindata.org/grapher/fatality-rates-due-to-lightning-in-the-us" target="_blank"><text font-size="25.2" x="15" y="35.2" fill="#555"><tspan x="15" y="35.16">Fatality rates due to lightning in the US</tspan></text></a><text font-size="14.4" x="15" y="53.7" fill="#666"><tspan x="15" y="53.72">Annual death rate per million.</tspan></text></g><g class="LineChart"><defs><clipPath id="a"><path d="M19.07 0h830v959.8h-830z"/></clipPath></defs><g class="AxisBoxView"><g class="HorizontalAxis" fill="#666" text-anchor="middle" font-size="16.2"><text x="29.1" y="556.5">1900</text><text x="165.8" y="556.5">1920</text><text x="302.4" y="556.5">1940</text><text x="439.1" y="556.5">1960</text><text x="575.8" y="556.5">1980</text><text x="712.5" y="556.5">2000</text><text x="815" y="556.5">2015</text></g><g class="VerticalAxis"><text x="24.07" y="535.3" fill="#666" dominant-baseline="middle" text-anchor="end" font-size="16.2">0</text><text x="24.07" y="462.7" fill="#666" dominant-baseline="middle" text-anchor="end" font-size="16.2">1</text><text x="24.07" y="390.1" fill="#666" dominant-baseline="middle" text-anchor="end" font-size="16.2">2</text><text x="24.07" y="317.6" fill="#666" dominant-baseline="middle" text-anchor="end" font-size="16.2">3</text><text x="24.07" y="245" fill="#666" dominant-baseline="middle" text-anchor="end" font-size="16.2">4</text><text x="24.07" y="172.4" fill="#666" dominant-baseline="middle" text-anchor="end" font-size="16.2">5</text><text x="24.07" y="99.8" fill="#666" dominant-baseline="middle" text-anchor="end" font-size="16.2">6</text><text x="15" y="68.6" style="text-transform:uppercase" class="clickable" font-size="12" cursor="pointer"><tspan font-family="FontAwesome"></tspan> linear</text></g><g class="AxisGridLines"><path stroke="#ccc" d="M29.07 535.3H815"/><path stroke="#ddd" stroke-dasharray="3,2" d="M29.07 462.7H815M29.07 390.1H815M29.07 317.6H815M29.07 245H815M29.07 172.4H815M29.07 99.8H815"/></g></g><g clip-path="url(#a)"><g class="Lines"><g class="key-United-States_0"><path stroke="#ca2628" stroke-linecap="round" d="M29 185l7-108 7 76 7 63 6 44 7 8 7-97 7 83 7-23 7 56 6 18 7-74 7-6 7-64 7 51 7 73 6-121 7-1 7 3 7 10 7 13 7-37 6 48 7-5 7 94 7-72 7 61 7 19 6-35 7 32 7 19 7-48 7 53 7-8 6-42 7 60 7-24 7-28 7 38 7 5 6 29 7-24 7 12 7-29 7 10 7 80 6 21 7-52 7 43 7 5 7 16 7-12 6 19 7 32 7-32 7 19 7 15 7-13 7 34 6-32 7 23 7-7 7-2 7-3 7 14 6-6 7 15 7 9 7-15 7-1 7 5h6l7 11 7-10 7 4 7-4 7 15 6-11 7 6 7 4 7-2 7 3 7-5 6 3 7 1 7 2 7 2 7-5 7 5 6 2 7-4 7 5 7 10 7-1 7-7 6-4 7 9 7 3h7l7-1 7-1 6 2 7-2 7 3 7 2 7-1 7-2 6 1 7 4 7-2 7 2h14l6 1 7-1h7" fill="none" stroke-width="1.5"/><g fill="#ca2628"><circle cx="29" cy="185" r="2"/><circle cx="36" cy="77" r="2"/><circle cx="43" cy="153" r="2"/><circle cx="50" cy="216" r="2"/><circle cx="56" cy="260" r="2"/><circle cx="63" cy="268" r="2"/><circle cx="70" cy="171" r="2"/><circle cx="77" cy="254" r="2"/><circle cx="84" cy="231" r="2"/><circle cx="91" cy="287" r="2"/><circle cx="97" cy="305" r="2"/><circle cx="104" cy="231" r="2"/><circle cx="111" cy="225" r="2"/><circle cx="118" cy="161" r="2"/><circle cx="125" cy="212" r="2"/><circle cx="132" cy="285" r="2"/><circle cx="138" cy="164" r="2"/><circle cx="145" cy="163" r="2"/><circle cx="152" cy="166" r="2"/><circle cx="159" cy="176" r="2"/><circle cx="166" cy="189" r="2"/><circle cx="173" cy="152" r="2"/><circle cx="179" cy="200" r="2"/><circle cx="186" cy="195" r="2"/><circle cx="193" cy="289" r="2"/><circle cx="200" cy="217" r="2"/><circle cx="207" cy="278" r="2"/><circle cx="214" cy="297" r="2"/><circle cx="220" cy="262" r="2"/><circle cx="227" cy="294" r="2"/><circle cx="234" cy="313" r="2"/><circle cx="241" cy="265" r="2"/><circle cx="248" cy="318" r="2"/><circle cx="255" cy="310" r="2"/><circle cx="261" cy="268" r="2"/><circle cx="268" cy="328" r="2"/><circle cx="275" cy="304" r="2"/><circle cx="282" cy="276" r="2"/><circle cx="289" cy="314" r="2"/><circle cx="296" cy="319" r="2"/><circle cx="302" cy="348" r="2"/><circle cx="309" cy="324" r="2"/><circle cx="316" cy="336" r="2"/><circle cx="323" cy="307" r="2"/><circle cx="330" cy="317" r="2"/><circle cx="337" cy="397" r="2"/><circle cx="343" cy="418" r="2"/><circle cx="350" cy="366" r="2"/><circle cx="357" cy="409" r="2"/><circle cx="364" cy="414" r="2"/><circle cx="371" cy="430" r="2"/><circle cx="378" cy="418" r="2"/><circle cx="384" cy="437" r="2"/><circle cx="391" cy="469" r="2"/><circle cx="398" cy="437" r="2"/><circle cx="405" cy="456" r="2"/><circle cx="412" cy="471" r="2"/><circle cx="419" cy="458" r="2"/><circle cx="426" cy="492" r="2"/><circle cx="432" cy="460" r="2"/><circle cx="439" cy="483" r="2"/><circle cx="446" cy="476" r="2"/><circle cx="453" cy="474" r="2"/><circle cx="460" cy="471" r="2"/><circle cx="467" cy="485" r="2"/><circle cx="473" cy="479" r="2"/><circle cx="480" cy="494" r="2"/><circle cx="487" cy="503" r="2"/><circle cx="494" cy="488" r="2"/><circle cx="501" cy="487" r="2"/><circle cx="508" cy="492" r="2"/><circle cx="514" cy="492" r="2"/><circle cx="521" cy="503" r="2"/><circle cx="528" cy="493" r="2"/><circle cx="535" cy="497" r="2"/><circle cx="542" cy="493" r="2"/><circle cx="549" cy="508" r="2"/><circle cx="555" cy="497" r="2"/><circle cx="562" cy="503" r="2"/><circle cx="569" cy="507" r="2"/><circle cx="576" cy="505" r="2"/><circle cx="583" cy="508" r="2"/><circle cx="590" cy="503" r="2"/><circle cx="596" cy="506" r="2"/><circle cx="603" cy="507" r="2"/><circle cx="610" cy="509" r="2"/><circle cx="617" cy="511" r="2"/><circle cx="624" cy="506" r="2"/><circle cx="631" cy="511" r="2"/><circle cx="637" cy="513" r="2"/><circle cx="644" cy="509" r="2"/><circle cx="651" cy="514" r="2"/><circle cx="658" cy="524" r="2"/><circle cx="665" cy="523" r="2"/><circle cx="672" cy="516" r="2"/><circle cx="678" cy="512" r="2"/><circle cx="685" cy="521" r="2"/><circle cx="692" cy="524" r="2"/><circle cx="699" cy="524" r="2"/><circle cx="706" cy="523" r="2"/><circle cx="713" cy="522" r="2"/><circle cx="719" cy="524" r="2"/><circle cx="726" cy="522" r="2"/><circle cx="733" cy="525" r="2"/><circle cx="740" cy="527" r="2"/><circle cx="747" cy="526" r="2"/><circle cx="754" cy="524" r="2"/><circle cx="760" cy="525" r="2"/><circle cx="767" cy="529" r="2"/><circle cx="774" cy="527" r="2"/><circle cx="781" cy="529" r="2"/><circle cx="788" cy="529" r="2"/><circle cx="795" cy="529" r="2"/><circle cx="801" cy="530" r="2"/><circle cx="808" cy="529" r="2"/><circle cx="815" cy="529" r="2"/></g></g></g></g></g><g class="SourcesFooter" fill="#777"><g class="clickable" fill="#777"><text font-size="12.6" x="15" y="581.6"><tspan x="15" y="581.58">Source: Our World In Data based on NOAA, Lopez Holle and population data</tspan></text></g><text font-size="12.6" x="548.6" y="581.6"><tspan x="548.6" y="581.58"><a target="_blank" href="https://ourworldindata.org/natural-disasters/" fill="#777">OurWorldInData.org/natural-disasters/</a> • <a class="cclogo" href="http://creativecommons.org/licenses/by-sa/4.0/deed.en_US" target="_blank" fill="#777">CC BY-SA</a></tspan></text></g></g></svg>

<svg xmlns="http://www.w3.org/2000/svg" version="1.1" style="font-family:&#x27;Helvetica Neue&#x27;, Helvetica, Arial, sans-serif;font-size:18px;background-color:white;text-rendering:optimizeLegibility;-webkit-font-smoothing:antialiased" width="850" height="600"><g class="ChartTab"><g class="HeaderView"><g opacity="0.8" transform="translate(778, 15) scale(0.27)"><a xmlns:xlink="http://www.w3.org/1999/xlink" xlink:href="https://ourworldindata.org" target="_blank"><g><rect x="0" y="0" fill="#1B2543" width="211.2" height="130.1"/><rect x="0" y="112.2" fill="#E63912" width="211.2" height="17.9"/><g><rect x="1.2" y="12.3" fill="none" width="210.2" height="99.2"/><path fill="#FFFFFF" d="M37.8,32.2c0,12.7-7.7,19.4-17.1,19.4c-9.7,0-16.6-7.5-16.6-18.7c0-11.7,7.3-19.3,17.1-19.3 C31.3,13.7,37.8,21.3,37.8,32.2z M9.2,32.8c0,7.9,4.3,14.9,11.8,14.9c7.5,0,11.8-6.9,11.8-15.3c0-7.3-3.8-14.9-11.8-14.9 C13.1,17.5,9.2,24.8,9.2,32.8z"/><path fill="#FFFFFF" d="M62.7,43.8c0,2.7,0.1,5.1,0.2,7.2h-4.3l-0.3-4.3h-0.1c-1.3,2.1-4,4.9-8.8,4.9c-4.2,0-9.1-2.3-9.1-11.6 V24.6h4.8v14.6c0,5,1.5,8.4,5.9,8.4c3.2,0,5.5-2.2,6.3-4.4c0.3-0.7,0.4-1.6,0.4-2.5V24.6h4.8V43.8z"/><path fill="#FFFFFF" d="M67.3,32.8c0-3.1-0.1-5.8-0.2-8.2h4.2l0.2,5.2h0.2c1.2-3.5,4.1-5.8,7.3-5.8c0.5,0,0.9,0.1,1.4,0.2v4.5 c-0.5-0.1-1-0.2-1.6-0.2c-3.4,0-5.8,2.6-6.5,6.2c-0.1,0.7-0.2,1.4-0.2,2.2V51h-4.8V32.8z"/><path fill="#FFFFFF" d="M95.4,51l-9.4-36.8h5l4.4,18.6c1.1,4.6,2.1,9.2,2.7,12.7h0.1c0.6-3.7,1.8-8,3-12.8l4.9-18.5h5l4.5,18.7 c1,4.4,2,8.7,2.6,12.6h0.1c0.8-4,1.8-8.1,3-12.7l4.9-18.5h4.9L120.6,51h-5L111,31.9c-1.1-4.7-1.9-8.3-2.4-12h-0.1 c-0.7,3.7-1.5,7.3-2.8,12L100.4,51H95.4z"/><path fill="#FFFFFF" d="M154.9,37.6c0,9.8-6.8,14-13.2,14c-7.2,0-12.7-5.2-12.7-13.6c0-8.8,5.8-14,13.1-14 C149.8,24,154.9,29.5,154.9,37.6z M133.9,37.9c0,5.8,3.3,10.1,8,10.1c4.6,0,8-4.3,8-10.3c0-4.5-2.2-10.1-7.9-10.1 C136.3,27.6,133.9,32.8,133.9,37.9z"/><path fill="#FFFFFF" d="M158.2,32.8c0-3.1-0.1-5.8-0.2-8.2h4.2l0.2,5.2h0.2c1.2-3.5,4.1-5.8,7.3-5.8c0.5,0,0.9,0.1,1.4,0.2v4.5 c-0.5-0.1-1-0.2-1.6-0.2c-3.4,0-5.8,2.6-6.5,6.2c-0.1,0.7-0.2,1.4-0.2,2.2V51h-4.8V32.8z"/><path fill="#FFFFFF" d="M173.5,12.3h4.8V51h-4.8V12.3z"/><path fill="#FFFFFF" d="M206.5,12.3v31.9c0,2.3,0.1,5,0.2,6.8h-4.3l-0.2-4.6H202c-1.5,2.9-4.7,5.2-9,5.2 c-6.4,0-11.3-5.4-11.3-13.4c-0.1-8.8,5.4-14.2,11.9-14.2c4,0,6.8,1.9,8,4h0.1V12.3H206.5z M201.7,35.4c0-0.6-0.1-1.4-0.2-2 c-0.7-3.1-3.3-5.6-6.9-5.6c-5,0-7.9,4.4-7.9,10.2c0,5.3,2.6,9.8,7.8,9.8c3.2,0,6.2-2.1,7.1-5.7c0.2-0.7,0.2-1.3,0.2-2.1V35.4z"/><path fill="#FFFFFF" d="M42.8,64c0.1,1.6-1.1,2.9-3.1,2.9c-1.7,0-2.9-1.3-2.9-2.9c0-1.7,1.3-3,3-3C41.7,61,42.8,62.3,42.8,64z M37.4,97.8V71.4h4.8v26.4H37.4z"/><path fill="#FFFFFF" d="M47.5,78.6c0-2.7-0.1-5-0.2-7.1h4.3l0.3,4.4h0.1c1.3-2.5,4.4-5,8.8-5c3.7,0,9.4,2.2,9.4,11.2v15.8h-4.8 V82.6c0-4.3-1.6-7.8-6.1-7.8c-3.2,0-5.6,2.2-6.5,4.9c-0.2,0.6-0.3,1.4-0.3,2.2v15.9h-4.8V78.6z"/><path fill="#FFFFFF" d="M84,61.6c2.9-0.4,6.3-0.8,10.1-0.8c6.8,0,11.7,1.6,14.9,4.6c3.3,3,5.2,7.3,5.2,13.2c0,6-1.9,10.9-5.3,14.3 c-3.4,3.4-9.1,5.3-16.3,5.3c-3.4,0-6.2-0.2-8.6-0.4V61.6z M88.8,94.1c1.2,0.2,3,0.3,4.8,0.3c10.2,0,15.7-5.7,15.7-15.6 c0.1-8.7-4.9-14.2-14.9-14.2c-2.5,0-4.3,0.2-5.6,0.5V94.1z"/><path fill="#FFFFFF" d="M132.1,97.8l-0.4-3.3h-0.2c-1.5,2.1-4.3,3.9-8.1,3.9c-5.4,0-8.1-3.8-8.1-7.6c0-6.4,5.7-9.9,15.9-9.8v-0.5 c0-2.2-0.6-6.1-6-6.1c-2.5,0-5,0.8-6.9,2l-1.1-3.2c2.2-1.4,5.4-2.3,8.7-2.3c8.1,0,10.1,5.5,10.1,10.8v9.9c0,2.3,0.1,4.5,0.4,6.3 H132.1z M131.4,84.4c-5.3-0.1-11.2,0.8-11.2,5.9c0,3.1,2.1,4.6,4.5,4.6c3.4,0,5.6-2.2,6.4-4.4c0.2-0.5,0.3-1,0.3-1.5V84.4z"/><path fill="#FFFFFF" d="M146.6,63.9v7.6h6.9v3.7h-6.9v14.2c0,3.3,0.9,5.1,3.6,5.1c1.3,0,2.2-0.2,2.8-0.3l0.2,3.6 c-0.9,0.4-2.4,0.7-4.3,0.7c-2.2,0-4-0.7-5.2-2c-1.4-1.4-1.9-3.8-1.9-6.9V75.1h-4.1v-3.7h4.1v-6.3L146.6,63.9z"/><path fill="#FFFFFF" d="M171.4,97.8l-0.4-3.3h-0.2c-1.5,2.1-4.3,3.9-8.1,3.9c-5.4,0-8.1-3.8-8.1-7.6c0-6.4,5.7-9.9,15.9-9.8v-0.5 c0-2.2-0.6-6.1-6-6.1c-2.5,0-5,0.8-6.9,2l-1.1-3.2c2.2-1.4,5.4-2.3,8.7-2.3c8.1,0,10.1,5.5,10.1,10.8v9.9c0,2.3,0.1,4.5,0.4,6.3 H171.4z M170.7,84.4c-5.3-0.1-11.2,0.8-11.2,5.9c0,3.1,2.1,4.6,4.5,4.6c3.4,0,5.6-2.2,6.4-4.4c0.2-0.5,0.3-1,0.3-1.5V84.4z"/></g></g></a></g><a href="https://ourworldindata.org/grapher/fatality-rates-due-to-lightning-in-the-us" target="_blank"><text font-size="25.20" x="15.0" y="35.2" fill="#555"><tspan x="15" y="35.160000000000004">Fatality rates due to lightning in the US</tspan></text></a><text font-size="14.40" x="15.0" y="53.7" fill="#666"><tspan x="15" y="53.72">Annual death rate per million.</tspan></text></g><g class="LineChart"><defs><clipPath id="boundsClip-3"><rect x="19.072000000000003" y="0" width="830" height="959.8"></rect></clipPath></defs><g class="AxisBoxView"><g class="HorizontalAxis"><text x="29.1" y="556.5" fill="#666" text-anchor="middle" font-size="16.2">1900</text><text x="165.8" y="556.5" fill="#666" text-anchor="middle" font-size="16.2">1920</text><text x="302.4" y="556.5" fill="#666" text-anchor="middle" font-size="16.2">1940</text><text x="439.1" y="556.5" fill="#666" text-anchor="middle" font-size="16.2">1960</text><text x="575.8" y="556.5" fill="#666" text-anchor="middle" font-size="16.2">1980</text><text x="712.5" y="556.5" fill="#666" text-anchor="middle" font-size="16.2">2000</text><text x="815" y="556.5" fill="#666" text-anchor="middle" font-size="16.2">2015</text></g><g class="VerticalAxis"><text x="24.07" y="535.3" fill="#666" dominant-baseline="middle" text-anchor="end" font-size="16.2">0</text><text x="24.07" y="462.7" fill="#666" dominant-baseline="middle" text-anchor="end" font-size="16.2">1</text><text x="24.07" y="390.1" fill="#666" dominant-baseline="middle" text-anchor="end" font-size="16.2">2</text><text x="24.07" y="317.6" fill="#666" dominant-baseline="middle" text-anchor="end" font-size="16.2">3</text><text x="24.07" y="245" fill="#666" dominant-baseline="middle" text-anchor="end" font-size="16.2">4</text><text x="24.07" y="172.4" fill="#666" dominant-baseline="middle" text-anchor="end" font-size="16.2">5</text><text x="24.07" y="99.8" fill="#666" dominant-baseline="middle" text-anchor="end" font-size="16.2">6</text><text x="15" y="68.6" style="font-size:12px;text-transform:uppercase;cursor:pointer" class="clickable"><tspan style="font-family:FontAwesome"></tspan> linear</text></g><g class="AxisGridLines"><line x1="29.07" y1="535.3" x2="815.00" y2="535.3" stroke="#ccc"></line><line x1="29.07" y1="462.7" x2="815.00" y2="462.7" stroke="#ddd" stroke-dasharray="3,2"></line><line x1="29.07" y1="390.1" x2="815.00" y2="390.1" stroke="#ddd" stroke-dasharray="3,2"></line><line x1="29.07" y1="317.6" x2="815.00" y2="317.6" stroke="#ddd" stroke-dasharray="3,2"></line><line x1="29.07" y1="245" x2="815.00" y2="245" stroke="#ddd" stroke-dasharray="3,2"></line><line x1="29.07" y1="172.4" x2="815.00" y2="172.4" stroke="#ddd" stroke-dasharray="3,2"></line><line x1="29.07" y1="99.8" x2="815.00" y2="99.8" stroke="#ddd" stroke-dasharray="3,2"></line></g></g><g clip-path="url(#boundsClip-3)"><g class="Lines"><rect x="29" y="77" width="786" height="459" fill="rgba(255,255,255,0)" opacity="0"></rect><g class="key-United-States_0"><path stroke="#ca2628" stroke-linecap="round" d="M29 185L36 77L43 153L50 216L56 260L63 268L70 171L77 254L84 231L91 287L97 305L104 231L111 225L118 161L125 212L132 285L138 164L145 163L152 166L159 176L166 189L173 152L179 200L186 195L193 289L200 217L207 278L214 297L220 262L227 294L234 313L241 265L248 318L255 310L261 268L268 328L275 304L282 276L289 314L296 319L302 348L309 324L316 336L323 307L330 317L337 397L343 418L350 366L357 409L364 414L371 430L378 418L384 437L391 469L398 437L405 456L412 471L419 458L426 492L432 460L439 483L446 476L453 474L460 471L467 485L473 479L480 494L487 503L494 488L501 487L508 492L514 492L521 503L528 493L535 497L542 493L549 508L555 497L562 503L569 507L576 505L583 508L590 503L596 506L603 507L610 509L617 511L624 506L631 511L637 513L644 509L651 514L658 524L665 523L672 516L678 512L685 521L692 524L699 524L706 523L713 522L719 524L726 522L733 525L740 527L747 526L754 524L760 525L767 529L774 527L781 529L788 529L795 529L801 530L808 529L815 529" fill="none" stroke-width="1.5"></path><g fill="#ca2628"><circle cx="29" cy="185" r="2"></circle><circle cx="36" cy="77" r="2"></circle><circle cx="43" cy="153" r="2"></circle><circle cx="50" cy="216" r="2"></circle><circle cx="56" cy="260" r="2"></circle><circle cx="63" cy="268" r="2"></circle><circle cx="70" cy="171" r="2"></circle><circle cx="77" cy="254" r="2"></circle><circle cx="84" cy="231" r="2"></circle><circle cx="91" cy="287" r="2"></circle><circle cx="97" cy="305" r="2"></circle><circle cx="104" cy="231" r="2"></circle><circle cx="111" cy="225" r="2"></circle><circle cx="118" cy="161" r="2"></circle><circle cx="125" cy="212" r="2"></circle><circle cx="132" cy="285" r="2"></circle><circle cx="138" cy="164" r="2"></circle><circle cx="145" cy="163" r="2"></circle><circle cx="152" cy="166" r="2"></circle><circle cx="159" cy="176" r="2"></circle><circle cx="166" cy="189" r="2"></circle><circle cx="173" cy="152" r="2"></circle><circle cx="179" cy="200" r="2"></circle><circle cx="186" cy="195" r="2"></circle><circle cx="193" cy="289" r="2"></circle><circle cx="200" cy="217" r="2"></circle><circle cx="207" cy="278" r="2"></circle><circle cx="214" cy="297" r="2"></circle><circle cx="220" cy="262" r="2"></circle><circle cx="227" cy="294" r="2"></circle><circle cx="234" cy="313" r="2"></circle><circle cx="241" cy="265" r="2"></circle><circle cx="248" cy="318" r="2"></circle><circle cx="255" cy="310" r="2"></circle><circle cx="261" cy="268" r="2"></circle><circle cx="268" cy="328" r="2"></circle><circle cx="275" cy="304" r="2"></circle><circle cx="282" cy="276" r="2"></circle><circle cx="289" cy="314" r="2"></circle><circle cx="296" cy="319" r="2"></circle><circle cx="302" cy="348" r="2"></circle><circle cx="309" cy="324" r="2"></circle><circle cx="316" cy="336" r="2"></circle><circle cx="323" cy="307" r="2"></circle><circle cx="330" cy="317" r="2"></circle><circle cx="337" cy="397" r="2"></circle><circle cx="343" cy="418" r="2"></circle><circle cx="350" cy="366" r="2"></circle><circle cx="357" cy="409" r="2"></circle><circle cx="364" cy="414" r="2"></circle><circle cx="371" cy="430" r="2"></circle><circle cx="378" cy="418" r="2"></circle><circle cx="384" cy="437" r="2"></circle><circle cx="391" cy="469" r="2"></circle><circle cx="398" cy="437" r="2"></circle><circle cx="405" cy="456" r="2"></circle><circle cx="412" cy="471" r="2"></circle><circle cx="419" cy="458" r="2"></circle><circle cx="426" cy="492" r="2"></circle><circle cx="432" cy="460" r="2"></circle><circle cx="439" cy="483" r="2"></circle><circle cx="446" cy="476" r="2"></circle><circle cx="453" cy="474" r="2"></circle><circle cx="460" cy="471" r="2"></circle><circle cx="467" cy="485" r="2"></circle><circle cx="473" cy="479" r="2"></circle><circle cx="480" cy="494" r="2"></circle><circle cx="487" cy="503" r="2"></circle><circle cx="494" cy="488" r="2"></circle><circle cx="501" cy="487" r="2"></circle><circle cx="508" cy="492" r="2"></circle><circle cx="514" cy="492" r="2"></circle><circle cx="521" cy="503" r="2"></circle><circle cx="528" cy="493" r="2"></circle><circle cx="535" cy="497" r="2"></circle><circle cx="542" cy="493" r="2"></circle><circle cx="549" cy="508" r="2"></circle><circle cx="555" cy="497" r="2"></circle><circle cx="562" cy="503" r="2"></circle><circle cx="569" cy="507" r="2"></circle><circle cx="576" cy="505" r="2"></circle><circle cx="583" cy="508" r="2"></circle><circle cx="590" cy="503" r="2"></circle><circle cx="596" cy="506" r="2"></circle><circle cx="603" cy="507" r="2"></circle><circle cx="610" cy="509" r="2"></circle><circle cx="617" cy="511" r="2"></circle><circle cx="624" cy="506" r="2"></circle><circle cx="631" cy="511" r="2"></circle><circle cx="637" cy="513" r="2"></circle><circle cx="644" cy="509" r="2"></circle><circle cx="651" cy="514" r="2"></circle><circle cx="658" cy="524" r="2"></circle><circle cx="665" cy="523" r="2"></circle><circle cx="672" cy="516" r="2"></circle><circle cx="678" cy="512" r="2"></circle><circle cx="685" cy="521" r="2"></circle><circle cx="692" cy="524" r="2"></circle><circle cx="699" cy="524" r="2"></circle><circle cx="706" cy="523" r="2"></circle><circle cx="713" cy="522" r="2"></circle><circle cx="719" cy="524" r="2"></circle><circle cx="726" cy="522" r="2"></circle><circle cx="733" cy="525" r="2"></circle><circle cx="740" cy="527" r="2"></circle><circle cx="747" cy="526" r="2"></circle><circle cx="754" cy="524" r="2"></circle><circle cx="760" cy="525" r="2"></circle><circle cx="767" cy="529" r="2"></circle><circle cx="774" cy="527" r="2"></circle><circle cx="781" cy="529" r="2"></circle><circle cx="788" cy="529" r="2"></circle><circle cx="795" cy="529" r="2"></circle><circle cx="801" cy="530" r="2"></circle><circle cx="808" cy="529" r="2"></circle><circle cx="815" cy="529" r="2"></circle></g></g></g></g></g><g class="SourcesFooter" style="fill:#777"><g class="clickable" style="fill:#777"><text font-size="12.60" x="15.0" y="581.6"><tspan x="15" y="581.58">Source: Our World In Data based on NOAA, Lopez Holle and population data</tspan></text></g><text font-size="12.60" x="548.6" y="581.6"><tspan x="548.602" y="581.58"><a target='_blank' style='fill: #777;' href='https://ourworldindata.org/natural-disasters/'>OurWorldInData.org/natural-disasters/</a> • <a style="fill: #777;" class="cclogo" href="http://creativecommons.org/licenses/by-sa/4.0/deed.en_US" target="_blank">CC BY-SA</a></tspan></text></g></g></svg>
